X:1
T:Crooked Stovepipe
L:1/4
M:C|
I:linebreak $
K:G
V:1 treble
V:1
"G" G B B/c/d/B/ | G B B/c/d/B/ | G B e3/2 B/ |"Am" d c c/d/c/A/ |$
"D" F A A/B/c/A/ | F A A/B/c/d/ |  e3/2 d/ e f |1"G" g f/e/ "D"d/c/B/A/ :|2"G" g g a ^a || $
"G" b3/2 c'/ b a | g2 g f |"C" e e f g |"Am" a3 b |"D" c'3/2 d'/ c' a |e3/2 d | d d e f |"G" g g a ^a | $
"G" b3/2 c'/ b a | g2 g f |"C" e e f g |"Am" a3 b |"D" c'3/2 c'/ c' a | f3 e | d d e f |"G" g f/e/ "D"d/c/B/A/ |]
